X: 1
T: Dispute At The Crossroads
M: 4/4
L: 1/8
D: Altan - Another Sky (Dermot Byrne)
R: reel
K: Edor
gf|eBBA FABc|~d2AF AFDf|eB~B2 Begb|afdf efgf|
eBBA FABc|~d2AF AFDd|Be~e2 Begb|afdf e2:|
|:gf|eB~B2 gBeB|defa afdf|g2bg fbaf|egfg edBb|
afdf edBe|dBAF AFDd|Be~e2 Begb|afdf e2:|
